dist/assets/images/icons/icons8-мумия.svg

<?xml version="1.0"?><svg fill="#000000" xmlns="http://www.w3.org/2000/svg"  viewBox="0 0 16 16" width="30px" height="30px">    <path d="M 8 1 C 5.8730203 1 4.5275607 1.554519 3.8027344 2.625 C 3.077908 3.695481 3 5.1040256 3 6.75 C 3 9.1716892 3.8008994 10.984396 4.8183594 12.183594 C 5.8358194 13.382791 7.0240703 14 8 14 C 8.9759297 14 10.164181 13.382791 11.181641 12.183594 C 12.199101 10.984396 13 9.1716892 13 6.75 C 13 5.1040256 12.922092 3.695481 12.197266 2.625 C 11.472439 1.554519 10.12698 1 8 1 z M 8 2 C 9.9640203 2 10.866717 2.445481 11.369141 3.1875 C 11.620352 3.5585095 11.778135 4.0471618 11.873047 4.6445312 C 11.882348 4.7030737 11.884454 4.7753356 11.892578 4.8359375 C 10.778101 4.4954531 8.2096732 3.6054411 6.1875 2.1855469 C 6.6633117 2.0653326 7.2545314 2 8 2 z M 5.1386719 2.6601562 C 6.1098693 3.4177882 7.2177335 4.0381395 8.2773438 4.5253906 C 8.6546986 4.6989135 9.0248421 4.857099 9.3789062 5 L 4.0898438 5 C 4.1762078 4.2479359 4.3339159 3.6260496 4.6308594 3.1875 C 4.7656223 2.9884714 4.933557 2.8136417 5.1386719 2.6601562 z M 4.0175781 6 L 11.982422 6 C 11.990633 6.2446274 12 6.4835925 12 6.75 C 12 7.0254138 11.988038 7.291301 11.966797 7.546875 C 11.924314 8.058023 11.842721 8.5287987 11.728516 8.9628906 C 11.725109 8.9758381 11.720259 8.9871197 11.716797 9 L 4.2832031 9 C 4.1056314 8.3393585 4 7.5926708 4 6.75 C 4 6.4835925 4.0093674 6.2446274 4.0175781 6 z M 5 7 C 5 7 5.5 8 6.5 8 C 6.776 8 7 7.776 7 7.5 C 7 7 5 7 5 7 z M 11 7 C 11 7 10.5 7 10 7.0625 C 9.5 7.125 9 7.25 9 7.5 C 9 7.776 9.224 8 9.5 8 C 10.5 8 11 7 11 7 z M 6.6152344 10 L 11.365234 10 C 11.100277 10.605299 10.773722 11.118161 10.419922 11.535156 C 10.343188 11.625597 10.260924 11.688038 10.181641 11.769531 C 10.013699 11.633647 9.8388994 11.497606 9.6230469 11.367188 C 8.7990778 10.869344 7.6749321 10.412488 6.6152344 10 z M 4.8320312 10.408203 C 5.256308 10.559447 5.6972004 10.714818 6.2246094 10.919922 C 7.4379144 11.391763 8.7528744 12.002884 9.390625 12.433594 C 8.8318231 12.804827 8.3055954 13 8 13 C 7.5059297 13 6.4451181 12.554709 5.5800781 11.535156 C 5.3091004 11.215777 5.0562013 10.83712 4.8320312 10.408203 z"/></svg>

<svg xmlns="http://www.w3.org/2000/svg" viewBox="0 0 16 16" width="30" height="30"><path d="M8 1c-2.127 0-3.472.555-4.197 1.625C3.078 3.695 3 5.104 3 6.75c0 2.422.8 4.234 1.818 5.434C5.836 13.383 7.024 14 8 14s2.164-.617 3.182-1.816C12.199 10.984 13 9.172 13 6.75c0-1.646-.078-3.055-.803-4.125C11.472 1.555 10.127 1 8 1zm0 1c1.964 0 2.867.445 3.37 1.188.25.37.408.86.503 1.457.01.058.011.13.02.19-1.115-.34-3.683-1.23-5.706-2.65C6.663 2.066 7.255 2 8 2zm-2.861.66c.97.758 2.079 1.378 3.138 1.865.378.174.748.332 1.102.475h-5.29c.087-.752.245-1.374.542-1.813.135-.199.303-.373.508-.527zM4.018 6h7.964c.009.245.018.484.018.75 0 .275-.012.541-.033.797a8.236 8.236 0 01-.238 1.416c-.004.013-.009.024-.012.037H4.283A8.632 8.632 0 014 6.75c0-.266.01-.505.018-.75zM5 7s.5 1 1.5 1a.5.5 0 00.5-.5C7 7 5 7 5 7zm6 0s-.5 0-1 .063c-.5.062-1 .187-1 .437a.5.5 0 00.5.5c1 0 1.5-1 1.5-1zm-4.385 3h4.75a6.232 6.232 0 01-.945 1.535c-.077.09-.16.153-.238.235a4.869 4.869 0 00-.559-.403c-.824-.498-1.948-.955-3.008-1.367zm-1.783.408c.424.151.865.307 1.393.512 1.213.472 2.528 1.083 3.166 1.514C8.83 12.804 8.306 13 8 13c-.494 0-1.555-.445-2.42-1.465a6.135 6.135 0 01-.748-1.127z"/></svg>
